packages/katcn/src/icons/svg/male.svg

<svg width="24" height="25" viewBox="0 0 24 25" fill="none" xmlns="http://www.w3.org/2000/svg">
<path d="M14.6 7.47607C15.1 6.87607 15.4 6.17607 15.4 5.37607C15.4 3.47607 13.9 1.97607 12 1.97607C10.1 1.97607 8.6 3.47607 8.6 5.37607C8.6 6.17607 8.9 6.87607 9.4 7.47607C7.9 8.27607 7 9.77607 7 11.4761V14.2761C7 14.8761 7.4 15.2761 8 15.2761C8.6 15.2761 9 14.8761 9 14.2761V11.4761C9 10.3761 9.7 9.37607 10.8 8.97607C11.7 8.67607 12.7 8.67607 13.6 9.07607C14.4 9.57607 15 10.4761 15 11.4761V14.3761C15 14.9761 15.4 15.3761 16 15.3761C16.6 15.3761 17 14.9761 17 14.3761V11.4761C17 9.77607 16.1 8.27607 14.6 7.47607ZM12 3.97607C12.8 3.97607 13.4 4.57607 13.4 5.37607C13.4 6.17607 12.8 6.67607 12 6.67607C11.2 6.67607 10.6 6.07607 10.6 5.27607C10.6 4.47607 11.2 3.97607 12 3.97607Z" fill="black"/>
<path d="M14 15.576C13.4 15.576 13 15.976 13 16.576V21.076C13 21.576 12.6 21.976 12 21.976C11.4 21.976 11 21.5761 11 21.1761V16.676C11 16.076 10.6 15.676 10 15.676C9.4 15.676 9 16.076 9 16.676V21.1761C9 22.6761 10.3 23.976 12 23.976C13.7 23.976 15 22.6761 15 21.1761V16.676C15 16.076 14.6 15.576 14 15.576Z" fill="black"/>
</svg>

<svg xmlns="http://www.w3.org/2000/svg" fill="none" viewBox="0 0 24 25"><path fill="#000" d="M14.6 7.476c.5-.6.8-1.3.8-2.1 0-1.9-1.5-3.4-3.4-3.4s-3.4 1.5-3.4 3.4c0 .8.3 1.5.8 2.1-1.5.8-2.4 2.3-2.4 4v2.8c0 .6.4 1 1 1s1-.4 1-1v-2.8c0-1.1.7-2.1 1.8-2.5.9-.3 1.9-.3 2.8.1.8.5 1.4 1.4 1.4 2.4v2.9c0 .6.4 1 1 1s1-.4 1-1v-2.9c0-1.7-.9-3.2-2.4-4m-2.6-3.5c.8 0 1.4.6 1.4 1.4s-.6 1.3-1.4 1.3-1.4-.6-1.4-1.4.6-1.3 1.4-1.3m2 11.6c-.6 0-1 .4-1 1v4.5c0 .5-.4.9-1 .9s-1-.4-1-.8v-4.5c0-.6-.4-1-1-1s-1 .4-1 1v4.5c0 1.5 1.3 2.8 3 2.8s3-1.3 3-2.8v-4.5c0-.6-.4-1.1-1-1.1"/></svg>
